32x32/places/folder-red-visiting.svg

<svg xmlns="http://www.w3.org/2000/svg" width="32" height="32" version="1">
 <rect style="opacity:0.2" width="28" height="18" x="2" y="11" rx="1.4" ry="1.4"/>
 <path style="fill:#bf4b4b" d="M 2,22.6 C 2,23.376 2.6244,24 3.4,24 H 28.6 C 29.376,24 30,23.376 30,22.6 V 7.4 C 30,6.6244 29.376,6 28.6,6 H 16 C 13.9,6 13.2,3 11.1,3 H 3.4 C 2.6244,3 2,3.6244 2,4.4"/>
 <rect style="opacity:0.2" width="28" height="18" x="2" y="9" rx="1.4" ry="1.4"/>
 <rect style="fill:#f4f4f7" width="24" height="11" x="4" y="8" rx="1.4" ry="1.4"/>
 <rect style="fill:#e25252" width="28" height="18" x="2" y="10" rx="1.4" ry="1.4"/>
 <path style="opacity:0.1;fill:#f4f4f7" d="M 3.4004,3 C 2.6248,3 2,3.6248 2,4.4004 V 5.4004 C 2,4.6248 2.6248,4 3.4004,4 H 11.1 C 13.2,4 13.9,7 16,7 H 28.6 C 29.375,7 30,7.6248 30,8.4004 V 7.4004 C 30,6.6248 29.375,6 28.6,6 H 16 C 13.9,6 13.2,3 11.1,3 Z"/>
 <path style="fill:#4f1d1d" d="M 3.4,10 C 2.6244,10 2,10.62775 2,11.40625 v 0.867375 l 27.00432,15.66 C 29.58,27.75925 30,27.2305 30,26.59375 v -1.458 L 3.90008,10 Z M 9.72016,10 30,21.76075 v -3.375 L 15.53856,10 Z M 21.35808,10 30,15.01075 v -3.375 L 27.1776,10 Z M 2,15.648625 v 3.375 L 17.4784,28 h 5.81952 z M 2,22.3975 v 3.375 L 5.83936,28 h 5.81952 z"/>
</svg>

<svg xmlns="http://www.w3.org/2000/svg" width="32" height="32" version="1"><rect style="opacity:.2" width="28" height="18" x="2" y="11" rx="1.4" ry="1.4"/><path style="fill:#bf4b4b" d="M2 22.6c0 .776.624 1.4 1.4 1.4h25.2c.776 0 1.4-.624 1.4-1.4V7.4c0-.776-.624-1.4-1.4-1.4H16c-2.1 0-2.8-3-4.9-3H3.4C2.624 3 2 3.624 2 4.4"/><rect style="opacity:.2" width="28" height="18" x="2" y="9" rx="1.4" ry="1.4"/><rect style="fill:#f4f4f7" width="24" height="11" x="4" y="8" rx="1.4" ry="1.4"/><rect style="fill:#e25252" width="28" height="18" x="2" y="10" rx="1.4" ry="1.4"/><path style="opacity:.1;fill:#f4f4f7" d="M3.4 3C2.625 3 2 3.625 2 4.4v1C2 4.625 2.625 4 3.4 4h7.7c2.1 0 2.8 3 4.9 3h12.6c.775 0 1.4.625 1.4 1.4v-1c0-.775-.625-1.4-1.4-1.4H16c-2.1 0-2.8-3-4.9-3z"/><path style="fill:#4f1d1d" d="M3.4 10A1.4 1.4 0 0 0 2 11.406v.868l27.004 15.66c.576-.175.996-.704.996-1.34v-1.458L3.9 10zm6.32 0L30 21.76v-3.374L15.539 10zm11.638 0L30 15.01v-3.374L27.178 10zM2 15.649v3.375L17.478 28h5.82zm0 6.749v3.375L5.84 28h5.819z"/></svg>
